flaticon/business/receipt.svg

<svg xmlns="http://www.w3.org/2000/svg" width="32" height="32" viewBox="0 0 24 24">
    <path d="M 24 1.71875 C 24 0.835938 23.28125 0.117188 22.398438 0.117188 L 1.601562 0.117188 C 0.71875 0.117188 0 0.835938 0 1.71875 C 0 2.460938 0.511719 3.082031 1.199219 3.261719 L 1.199219 22.683594 L 2.398438 21.484375 L 4.800781 23.882812 L 7.199219 21.484375 L 9.601562 23.882812 L 12 21.484375 L 14.398438 23.882812 L 16.800781 21.484375 L 19.199219 23.882812 L 21.601562 21.484375 L 22.800781 22.683594 L 22.800781 3.261719 C 23.488281 3.082031 24 2.460938 24 1.71875 Z M 22 20.75 L 21.601562 20.351562 L 19.199219 22.75 L 16.800781 20.351562 L 14.398438 22.75 L 12 20.351562 L 9.601562 22.75 L 7.199219 20.351562 L 4.800781 22.75 L 2.398438 20.351562 L 2 20.75 L 2 2.117188 L 22 2.117188 Z M 22.800781 2.410156 L 22.800781 1.316406 L 1.199219 1.316406 L 1.199219 2.410156 C 0.960938 2.273438 0.800781 2.011719 0.800781 1.71875 C 0.800781 1.277344 1.160156 0.917969 1.601562 0.917969 L 22.398438 0.917969 C 22.839844 0.917969 23.199219 1.277344 23.199219 1.71875 C 23.199219 2.011719 23.039062 2.273438 22.800781 2.410156 Z M 22.800781 2.410156"/>
    <path d="M17.601562 16.117188L11.601562 16.117188C11.378906 16.117188 11.199219 16.296875 11.199219 16.515625 11.199219 16.738281 11.378906 16.917969 11.601562 16.917969L17.601562 16.917969C17.820312 16.917969 18 16.738281 18 16.515625 18 16.296875 17.820312 16.117188 17.601562 16.117188zM19.316406 16.234375C19.242188 16.308594 19.199219 16.410156 19.199219 16.515625 19.199219 16.621094 19.242188 16.726562 19.316406 16.800781 19.390625 16.875 19.496094 16.917969 19.601562 16.917969 19.703125 16.917969 19.808594 16.875 19.882812 16.800781 19.957031 16.726562 20 16.621094 20 16.515625 20 16.410156 19.957031 16.308594 19.882812 16.234375 19.730469 16.085938 19.46875 16.085938 19.316406 16.234375zM19.601562 10.515625L13.601562 10.515625C13.378906 10.515625 13.199219 10.695312 13.199219 10.917969 13.199219 11.136719 13.378906 11.316406 13.601562 11.316406L19.601562 11.316406C19.820312 11.316406 20 11.136719 20 10.917969 20 10.695312 19.820312 10.515625 19.601562 10.515625zM19.601562 13.316406L15.601562 13.316406C15.378906 13.316406 15.199219 13.496094 15.199219 13.71875 15.199219 13.9375 15.378906 14.117188 15.601562 14.117188L19.601562 14.117188C19.820312 14.117188 20 13.9375 20 13.71875 20 13.496094 19.820312 13.316406 19.601562 13.316406zM11.199219 13.71875C11.199219 13.9375 11.378906 14.117188 11.601562 14.117188L12.398438 14.117188C12.621094 14.117188 12.800781 13.9375 12.800781 13.71875 12.800781 13.496094 12.621094 13.316406 12.398438 13.316406L11.601562 13.316406C11.378906 13.316406 11.199219 13.496094 11.199219 13.71875zM18 8.117188C18 7.894531 17.820312 7.71875 17.601562 7.71875L11.601562 7.71875C11.378906 7.71875 11.199219 7.894531 11.199219 8.117188 11.199219 8.339844 11.378906 8.515625 11.601562 8.515625L17.601562 8.515625C17.820312 8.515625 18 8.339844 18 8.117188zM19.316406 7.832031C19.242188 7.910156 19.199219 8.007812 19.199219 8.117188 19.199219 8.222656 19.242188 8.324219 19.316406 8.402344 19.390625 8.472656 19.496094 8.515625 19.601562 8.515625 19.707031 8.515625 19.808594 8.472656 19.882812 8.402344 19.957031 8.324219 20 8.222656 20 8.117188 20 8.011719 19.957031 7.910156 19.882812 7.832031 19.734375 7.683594 19.464844 7.683594 19.316406 7.832031zM12.285156 11.203125C12.355469 11.125 12.398438 11.023438 12.398438 10.917969 12.398438 10.808594 12.355469 10.707031 12.285156 10.632812 12.136719 10.484375 11.867188 10.484375 11.714844 10.632812 11.644531 10.707031 11.601562 10.808594 11.601562 10.917969 11.601562 11.023438 11.644531 11.125 11.714844 11.203125 11.792969 11.273438 11.894531 11.316406 12 11.316406 12.105469 11.316406 12.207031 11.273438 12.285156 11.203125zM14.285156 14C14.355469 13.925781 14.398438 13.824219 14.398438 13.71875 14.398438 13.609375 14.355469 13.503906 14.285156 13.433594 14.136719 13.285156 13.867188 13.285156 13.714844 13.433594 13.644531 13.507812 13.601562 13.613281 13.601562 13.71875 13.601562 13.820312 13.644531 13.925781 13.714844 14 13.792969 14.074219 13.894531 14.117188 14 14.117188 14.105469 14.117188 14.207031 14.074219 14.285156 14zM6.800781 8.558594L6.800781 8.117188C6.800781 7.894531 6.621094 7.71875 6.398438 7.71875 6.179688 7.71875 6 7.894531 6 8.117188L6 8.558594C5.5625 8.648438 5.164062 8.878906 4.871094 9.226562 4.628906 9.515625 4.515625 9.882812 4.554688 10.265625 4.597656 10.660156 4.796875 11.023438 5.109375 11.261719L6 11.957031 6 14.132812C5.535156 13.96875 5.199219 13.527344 5.199219 13.007812 5.199219 12.785156 5.019531 12.605469 4.800781 12.605469 4.578125 12.605469 4.398438 12.785156 4.398438 13.007812 4.398438 13.972656 5.089844 14.78125 6 14.964844L6 15.316406C6 15.539062 6.179688 15.71875 6.398438 15.71875 6.621094 15.71875 6.800781 15.539062 6.800781 15.316406L6.800781 14.964844C7.238281 14.875 7.632812 14.644531 7.925781 14.296875 8.171875 14.007812 8.285156 13.636719 8.246094 13.253906 8.203125 12.863281 8.003906 12.5 7.691406 12.257812L6.800781 11.566406 6.800781 9.390625C7.265625 9.558594 7.601562 9.996094 7.601562 10.519531 7.601562 10.738281 7.777344 10.917969 8 10.917969 8.222656 10.917969 8.398438 10.738281 8.398438 10.519531 8.398438 9.550781 7.710938 8.742188 6.800781 8.558594zM7.199219 12.890625C7.339844 13 7.429688 13.164062 7.449219 13.339844 7.464844 13.503906 7.417969 13.660156 7.316406 13.78125 7.175781 13.945312 6.996094 14.058594 6.800781 14.128906L6.800781 12.578125zM5.597656 10.632812C5.460938 10.523438 5.371094 10.359375 5.351562 10.183594 5.335938 10.019531 5.378906 9.863281 5.484375 9.742188 5.621094 9.578125 5.800781 9.464844 6 9.394531L6 10.945312zM16.398438 4.515625C16.398438 4.738281 16.222656 4.917969 16 4.917969 15.777344 4.917969 15.601562 4.738281 15.601562 4.515625 15.601562 4.296875 15.777344 4.117188 16 4.117188 16.222656 4.117188 16.398438 4.296875 16.398438 4.515625zM14.800781 4.515625C14.800781 4.738281 14.621094 4.917969 14.398438 4.917969 14.179688 4.917969 14 4.738281 14 4.515625 14 4.296875 14.179688 4.117188 14.398438 4.117188 14.621094 4.117188 14.800781 4.296875 14.800781 4.515625zM18 4.515625C18 4.738281 17.820312 4.917969 17.601562 4.917969 17.378906 4.917969 17.199219 4.738281 17.199219 4.515625 17.199219 4.296875 17.378906 4.117188 17.601562 4.117188 17.820312 4.117188 18 4.296875 18 4.515625zM13.199219 4.515625C13.199219 4.738281 13.019531 4.917969 12.800781 4.917969 12.578125 4.917969 12.398438 4.738281 12.398438 4.515625 12.398438 4.296875 12.578125 4.117188 12.800781 4.117188 13.019531 4.117188 13.199219 4.296875 13.199219 4.515625zM19.601562 4.515625C19.601562 4.738281 19.421875 4.917969 19.199219 4.917969 18.980469 4.917969 18.800781 4.738281 18.800781 4.515625 18.800781 4.296875 18.980469 4.117188 19.199219 4.117188 19.421875 4.117188 19.601562 4.296875 19.601562 4.515625zM8.398438 4.515625C8.398438 4.738281 8.222656 4.917969 8 4.917969 7.777344 4.917969 7.601562 4.738281 7.601562 4.515625 7.601562 4.296875 7.777344 4.117188 8 4.117188 8.222656 4.117188 8.398438 4.296875 8.398438 4.515625zM10 4.515625C10 4.738281 9.820312 4.917969 9.601562 4.917969 9.378906 4.917969 9.199219 4.738281 9.199219 4.515625 9.199219 4.296875 9.378906 4.117188 9.601562 4.117188 9.820312 4.117188 10 4.296875 10 4.515625zM11.601562 4.515625C11.601562 4.738281 11.421875 4.917969 11.199219 4.917969 10.980469 4.917969 10.800781 4.738281 10.800781 4.515625 10.800781 4.296875 10.980469 4.117188 11.199219 4.117188 11.421875 4.117188 11.601562 4.296875 11.601562 4.515625zM21.199219 4.515625C21.199219 4.738281 21.019531 4.917969 20.800781 4.917969 20.578125 4.917969 20.398438 4.738281 20.398438 4.515625 20.398438 4.296875 20.578125 4.117188 20.800781 4.117188 21.019531 4.117188 21.199219 4.296875 21.199219 4.515625zM6.800781 4.515625C6.800781 4.738281 6.621094 4.917969 6.398438 4.917969 6.179688 4.917969 6 4.738281 6 4.515625 6 4.296875 6.179688 4.117188 6.398438 4.117188 6.621094 4.117188 6.800781 4.296875 6.800781 4.515625zM5.199219 4.515625C5.199219 4.738281 5.019531 4.917969 4.800781 4.917969 4.578125 4.917969 4.398438 4.738281 4.398438 4.515625 4.398438 4.296875 4.578125 4.117188 4.800781 4.117188 5.019531 4.117188 5.199219 4.296875 5.199219 4.515625zM3.601562 4.515625C3.601562 4.738281 3.421875 4.917969 3.199219 4.917969 2.980469 4.917969 2.800781 4.738281 2.800781 4.515625 2.800781 4.296875 2.980469 4.117188 3.199219 4.117188 3.421875 4.117188 3.601562 4.296875 3.601562 4.515625zM3.601562 4.515625"/>
</svg>

<svg xmlns="http://www.w3.org/2000/svg" width="32" height="32" viewBox="0 0 24 24">
    <path d="M24 1.719c0-.883-.719-1.602-1.602-1.602H1.602C.719.117 0 .836 0 1.72a1.6 1.6 0 0 0 1.2 1.543v19.422l1.198-1.2 2.403 2.399 2.398-2.399 2.403 2.399L12 21.484l2.398 2.399 2.403-2.399 2.398 2.399 2.403-2.399 1.199 1.2V3.262A1.6 1.6 0 0 0 24 1.719zM22 20.75l-.398-.398-2.403 2.398-2.398-2.398-2.403 2.398L12 20.352 9.602 22.75l-2.403-2.398-2.398 2.398-2.403-2.398L2 20.75V2.117h20zm.8-18.34V1.316H1.2V2.41A.8.8 0 0 1 1.601.918h20.796a.802.802 0 0 1 .403 1.492zm0 0"/>
    <path d="M17.602 16.117h-6a.401.401 0 1 0 0 .801h6a.401.401 0 0 0 0-.8zm0 0M19.316 16.234a.4.4 0 0 0 .286.684.406.406 0 0 0 .28-.117.4.4 0 0 0 0-.566.416.416 0 0 0-.566 0zm0 0M19.602 10.516h-6a.401.401 0 0 0 0 .8h6a.4.4 0 0 0 0-.8zm0 0M19.602 13.316h-4a.401.401 0 0 0 0 .8l4 .001a.4.4 0 0 0 0-.8zm0 0M11.2 13.719c0 .219.179.398.402.398h.796a.401.401 0 1 0 0-.8h-.796a.402.402 0 0 0-.403.402zm0 0M18 8.117a.398.398 0 0 0-.398-.398h-6a.398.398 0 1 0 0 .797h6A.398.398 0 0 0 18 8.117zm0 0M19.316 7.832a.409.409 0 0 0-.117.285c0 .106.043.207.117.285a.413.413 0 0 0 .566 0A.416.416 0 0 0 20 8.117a.416.416 0 0 0-.117-.285.416.416 0 0 0-.567 0zm0 0M12.285 11.203a.415.415 0 0 0 0-.57.42.42 0 0 0-.57 0 .415.415 0 0 0 0 .57.43.43 0 0 0 .285.113.43.43 0 0 0 .285-.113zm0 0M14.285 14a.413.413 0 0 0 0-.566.42.42 0 0 0-.57 0 .423.423 0 0 0-.113.285.42.42 0 0 0 .113.281c.078.074.18.117.285.117a.416.416 0 0 0 .285-.117zm0 0M6.8 8.559v-.442a.398.398 0 0 0-.402-.398.398.398 0 0 0-.398.398v.442c-.438.09-.836.32-1.129.668-.242.289-.355.656-.316 1.039.043.394.242.757.554.996l.891.695v2.176a1.196 1.196 0 0 1-.8-1.125.401.401 0 1 0-.802 0c0 .965.692 1.773 1.602 1.957v.351a.401.401 0 1 0 .8 0v-.351c.438-.09.833-.32 1.126-.668.246-.29.36-.66.32-1.043a1.466 1.466 0 0 0-.555-.996l-.89-.692V9.391c.465.168.8.605.8 1.129a.398.398 0 1 0 .797 0 2 2 0 0 0-1.597-1.961zm.4 4.332c.14.109.23.273.25.449a.592.592 0 0 1-.134.441 1.21 1.21 0 0 1-.515.348v-1.55zm-1.602-2.258a.675.675 0 0 1-.246-.45.576.576 0 0 1 .132-.44c.137-.165.317-.278.516-.348v1.55zm0 0M16.398 4.516a.398.398 0 1 1-.796 0 .398.398 0 1 1 .796 0zm0 0M14.8 4.516a.401.401 0 1 1 0 0zm0 0M18 4.516a.401.401 0 1 1-.802.002.401.401 0 0 1 .802-.002zm0 0M13.2 4.516a.401.401 0 1 1-.803.002.401.401 0 0 1 .802-.002zm0 0M19.602 4.516a.401.401 0 1 1 0 0zm0 0M8.398 4.516a.398.398 0 1 1-.796 0 .398.398 0 1 1 .796 0zm0 0M10 4.516a.401.401 0 1 1-.802.002.401.401 0 0 1 .802-.002zm0 0M11.602 4.516a.401.401 0 1 1 0 0zm0 0M21.2 4.516a.401.401 0 1 1-.803.002.401.401 0 0 1 .802-.002zm0 0M6.8 4.516a.401.401 0 1 1 0 0zm0 0M5.2 4.516a.401.401 0 1 1-.803.002.401.401 0 0 1 .802-.002zm0 0M3.602 4.516a.401.401 0 1 1 0 0zm0 0"/>
</svg>
